suite-common/icons/assets/icons/trezorT3T1.svg

<svg xmlns="http://www.w3.org/2000/svg" fill="none" viewBox="0 0 32 32">
  <path fill="#171717" fill-rule="evenodd" d="M10.096 2.106a4.6 4.6 0 0 0-.773.282c-1.26.595-2.064 1.673-2.282 3.061-.044.284-.056 2.218-.043 7.058l.018 6.666.12.607c.153.766.484 1.76.79 2.37.354.706 3.627 6.367 3.869 6.69.385.517 1.002.911 1.698 1.086.424.107 4.59.107 5.014 0 .696-.175 1.313-.569 1.698-1.086.243-.325 3.505-5.968 3.862-6.68.446-.89.766-2 .891-3.093.074-.654.075-13.153 0-13.627-.246-1.556-1.216-2.697-2.773-3.261l-.345-.125-5.707-.01c-4.641-.008-5.768.003-6.037.062m11.728 2.09c.438.208.775.535.98.954l.156.317v6.826c0 6.456-.005 6.851-.099 7.278a7.2 7.2 0 0 1-.581 1.682c-.307.615-3.605 6.324-3.734 6.466-.25.273-.38.286-2.63.27l-2.084-.016-.215-.142c-.189-.125-.425-.507-1.977-3.2-1.918-3.327-2.065-3.601-2.272-4.221-.345-1.033-.328-.601-.328-8.117V5.467l.156-.317a2.1 2.1 0 0 1 1.35-1.093c.113-.027 2.55-.044 5.561-.039l5.36.009z"/>
</svg>

<svg xmlns="http://www.w3.org/2000/svg" fill="none" viewBox="0 0 32 32"><path d="M10.096 2.106 C 9.915 2.146,9.567 2.273,9.323 2.388 C 8.063 2.983,7.259 4.061,7.041 5.449 C 6.997 5.733,6.985 7.667,6.998 12.507 L 7.016 19.173 7.136 19.780 C 7.289 20.546,7.620 21.540,7.926 22.150 C 8.280 22.856,11.553 28.517,11.795 28.840 C 12.180 29.357,12.797 29.751,13.493 29.926 C 13.917 30.033,18.083 30.033,18.507 29.926 C 19.203 29.751,19.820 29.357,20.205 28.840 C 20.448 28.515,23.710 22.872,24.067 22.160 C 24.513 21.270,24.833 20.160,24.958 19.067 C 25.032 18.413,25.033 5.914,24.958 5.440 C 24.712 3.884,23.742 2.743,22.185 2.179 L 21.840 2.054 16.133 2.044 C 11.492 2.036,10.365 2.047,10.096 2.106 M21.824 4.196 C 22.262 4.404,22.599 4.731,22.804 5.150 L 22.960 5.467 22.960 12.293 C 22.960 18.749,22.955 19.144,22.861 19.571 C 22.725 20.191,22.532 20.748,22.280 21.253 C 21.973 21.868,18.675 27.577,18.546 27.719 C 18.296 27.992,18.166 28.005,15.916 27.989 L 13.832 27.973 13.617 27.831 C 13.428 27.706,13.192 27.324,11.640 24.631 C 9.722 21.304,9.575 21.030,9.368 20.410 C 9.023 19.377,9.040 19.809,9.040 12.293 L 9.040 5.467 9.196 5.150 C 9.458 4.615,9.981 4.192,10.546 4.057 C 10.659 4.030,13.096 4.013,16.107 4.018 L 21.467 4.027 21.824 4.196 " fill="#171717" stroke="none" fill-rule="evenodd"></path></svg>
